static/logos/stoplight-stoplight-glyph-color.svg

<svg width="50" height="50" viewBox="0 0 50 50" fill="none" xmlns="http://www.w3.org/2000/svg">
<path d="M25 50C38.8071 50 50 38.8071 50 25C50 11.1929 38.8071 0 25 0C11.1929 0 0 11.1929 0 25C0 38.8071 11.1929 50 25 50Z" fill="#139EF3"/>
<path fill-rule="evenodd" clip-rule="evenodd" d="M25.003 9.04254C25.6511 9.04254 26.1765 9.56246 26.1765 10.2038V11.1328H34.4076C36.537 11.1328 38.2633 12.8411 38.2633 14.9484V18.4276C38.2633 18.8236 38.4222 19.2033 38.7052 19.4834L39.3565 20.1279C40.0766 20.8405 40.0766 21.996 39.3565 22.7086L38.7052 23.3531C38.4222 23.6332 38.2633 24.0129 38.2633 24.4089V27.6227C38.2633 28.264 37.7379 28.784 37.0898 28.784C36.4417 28.784 35.9163 28.264 35.9163 27.6227V24.4089C35.9163 23.397 36.3225 22.4265 37.0457 21.7109L37.3413 21.4183L37.0457 21.1256C36.3225 20.41 35.9163 19.4395 35.9163 18.4276V14.9484C35.9163 14.1238 35.2408 13.4553 34.4076 13.4553H15.5984C14.7652 13.4553 14.0897 14.1238 14.0897 14.9484V18.4276C14.0897 19.4395 13.6835 20.41 12.9603 21.1256L12.6646 21.4183L12.9603 21.7109C13.6835 22.4265 14.0897 23.397 14.0897 24.4089V27.4568C14.0897 28.2814 14.7652 28.9498 15.5984 28.9498H31.893C34.0224 28.9498 35.7487 30.6582 35.7487 32.7654V38.7376C35.7487 40.8449 34.0224 42.5532 31.893 42.5532H18.6159C16.4865 42.5532 14.7602 40.8449 14.7602 38.7376V35.9506C14.7602 35.3092 15.2856 34.7893 15.9337 34.7893C16.5818 34.7893 17.1072 35.3092 17.1072 35.9506V38.7376C17.1072 39.5622 17.7827 40.2307 18.6159 40.2307H31.893C32.7262 40.2307 33.4017 39.5622 33.4017 38.7376V32.7654C33.4017 31.9409 32.7262 31.2724 31.893 31.2724H15.5984C13.469 31.2724 11.7427 29.5641 11.7427 27.4568V24.4089C11.7427 24.0129 11.5838 23.6332 11.3008 23.3531L10.6495 22.7086C9.92934 21.996 9.92934 20.8405 10.6495 20.1279L11.3008 19.4834C11.5838 19.2033 11.7427 18.8236 11.7427 18.4276V14.9484C11.7427 12.8411 13.469 11.1328 15.5984 11.1328H23.8295V10.2038C23.8295 9.56246 24.3549 9.04254 25.003 9.04254Z" fill="white"/>
<path d="M20.4789 21.8085C21.5071 21.8085 22.3406 20.856 22.3406 19.6809C22.3406 18.5058 21.5071 17.5532 20.4789 17.5532C19.4507 17.5532 18.6172 18.5058 18.6172 19.6809C18.6172 20.856 19.4507 21.8085 20.4789 21.8085Z" fill="white"/>
<path d="M29.518 21.8085C30.5461 21.8085 31.3797 20.856 31.3797 19.6809C31.3797 18.5058 30.5461 17.5532 29.518 17.5532C28.4898 17.5532 27.6562 18.5058 27.6562 19.6809C27.6562 20.856 28.4898 21.8085 29.518 21.8085Z" fill="white"/>
<path fill-rule="evenodd" clip-rule="evenodd" d="M24.9962 6.67552C24.4674 6.67552 24.0387 7.13991 24.0387 7.71276C24.0387 8.28561 24.4674 8.74999 24.9962 8.74999C25.525 8.74999 25.9536 8.28561 25.9536 7.71276C25.9536 7.13991 25.525 6.67552 24.9962 6.67552ZM21.8047 7.71276C21.8047 5.80326 23.2336 4.25531 24.9962 4.25531C26.7588 4.25531 28.1877 5.80326 28.1877 7.71276C28.1877 9.62225 26.7588 11.1702 24.9962 11.1702C23.2336 11.1702 21.8047 9.62225 21.8047 7.71276Z" fill="white"/>
</svg>

<svg xmlns="http://www.w3.org/2000/svg" width="64" height="64" fill="none" viewBox="0 0 50 50"><path fill="#139EF3" d="M25 50c13.807 0 25-11.193 25-25S38.807 0 25 0 0 11.193 0 25s11.193 25 25 25Z"/><path fill="#fff" fill-rule="evenodd" d="M25.003 9.043c.648 0 1.174.52 1.174 1.16v.93h8.23c2.13 0 3.856 1.708 3.856 3.815v3.48c0 .396.16.775.442 1.055l.651.645c.72.712.72 1.868 0 2.58l-.65.645c-.284.28-.443.66-.443 1.056v3.214c0 .641-.525 1.161-1.173 1.161s-1.174-.52-1.174-1.161v-3.214c0-1.012.407-1.982 1.13-2.698l.295-.293-.295-.292a3.795 3.795 0 0 1-1.13-2.698v-3.48c0-.824-.675-1.493-1.508-1.493h-18.81c-.833 0-1.508.669-1.508 1.493v3.48a3.795 3.795 0 0 1-1.13 2.698l-.295.292.295.293a3.795 3.795 0 0 1 1.13 2.698v3.048a1.5 1.5 0 0 0 1.508 1.493h16.295c2.13 0 3.856 1.708 3.856 3.815v5.973c0 2.107-1.727 3.815-3.856 3.815H18.616c-2.13 0-3.856-1.708-3.856-3.815V35.95c0-.642.526-1.162 1.174-1.162.648 0 1.173.52 1.173 1.162v2.787c0 .824.676 1.493 1.509 1.493h13.277c.833 0 1.509-.669 1.509-1.493v-5.973c0-.824-.676-1.493-1.509-1.493H15.598c-2.129 0-3.855-1.708-3.855-3.815v-3.048c0-.396-.16-.776-.442-1.056l-.652-.644a1.811 1.811 0 0 1 0-2.581l.652-.645c.283-.28.442-.66.442-1.055v-3.48c0-2.107 1.726-3.815 3.855-3.815h8.231v-.93c0-.64.526-1.16 1.174-1.16Z" clip-rule="evenodd"/><path fill="#fff" d="M20.479 21.808c1.028 0 1.862-.952 1.862-2.127 0-1.175-.834-2.128-1.862-2.128s-1.862.953-1.862 2.128c0 1.175.834 2.127 1.862 2.127ZM29.518 21.808c1.028 0 1.862-.952 1.862-2.127 0-1.175-.834-2.128-1.862-2.128s-1.862.953-1.862 2.128c0 1.175.834 2.127 1.862 2.127Z"/><path fill="#fff" fill-rule="evenodd" d="M24.996 6.676c-.529 0-.957.464-.957 1.037s.428 1.037.957 1.037c.529 0 .958-.464.958-1.037s-.429-1.037-.958-1.037Zm-3.191 1.037c0-1.91 1.429-3.458 3.191-3.458 1.763 0 3.192 1.548 3.192 3.458 0 1.91-1.43 3.457-3.192 3.457-1.762 0-3.191-1.548-3.191-3.457Z" clip-rule="evenodd"/></svg>
